images/svg/facebook.svg

<svg width="11" height="18" viewBox="0 0 11 18" fill="none" xmlns="http://www.w3.org/2000/svg">
<path d="M10.0073 0.666626H7.33945C6.16017 0.666626 5.0292 1.10561 4.19532 1.88701C3.36145 2.66842 2.89298 3.72822 2.89298 4.83329V7.33329H0.225098V10.6666H2.89298V17.3333H6.45016V10.6666H9.11804L10.0073 7.33329H6.45016V4.83329C6.45016 4.61228 6.54385 4.40032 6.71063 4.24404C6.8774 4.08776 7.1036 3.99996 7.33945 3.99996H10.0073V0.666626Z" fill="white"/>
</svg>

<svg xmlns="http://www.w3.org/2000/svg" width="11" height="18" fill="none"><path fill="#fff" d="M10.007.667H7.34c-1.179 0-2.31.439-3.144 1.22-.834.781-1.302 1.841-1.302 2.946v2.5H.225v3.334h2.668v6.666H6.45v-6.666h2.668l.89-3.334H6.45v-2.5c0-.22.094-.433.26-.589A.92.92 0 0 1 7.34 4h2.667V.667Z"/></svg>
